X:1
T:Title
%%score { ( 1 3 ) | 2 }
L:1/8
M:2/4
K:Eb
V:1 treble nm="Grand Piano"
V:3 treble 
V:2 bass 
V:1
 z2 z[Q:1/4=86] B | BB BB | e[Ec] B2 | B3 G | [EG]>[DF] [DF]G/A/ | BB BB | e[Ec] [EB]2 | %7
 [EB]3 [EG] | [DF]>E E2 | e3 d | d>c c2 | [=Ec]3 [GB] | [GB]>A AG/A/ | BB B[FB] | %14
 [Ee][Ec] [B,EB]2 | [EB]3 [EG] |[M:3/8] [DF]>EE |] %17
V:2
 z2 z [E,G,E] | [E,G,E][F,A,D] [G,B,E][E,G,E] | [A,,CE][C,A,] [E,G,E]2 | [E,G,E]3 [E,B,E] | %4
 [B,,B,]>[B,,B,] [B,,B,][B,,A,] | [E,G,E][F,A,D] [G,B,E][E,G,E] | [A,,CE][C,A,] [E,G,]2 | %7
 [B,,G,]3 [B,,B,] | [B,,A,]>[E,G,] [E,G,]2 | [G,B,E]3 [G,=B,F] | [G,=B,F]>[A,CE] [A,CE]2 | %11
 [C,C]3 [=E,C] | [F,C]>[F,CF] [F,CF][A,B,D] | [G,B,E][F,A,D] [E,G,E][D,F,] | [C,G,][A,,A,] G,,2 | %15
 [B,,G,]3 [B,,B,] |[M:3/8] [B,,A,]>[E,G,][E,G,] |] %17
V:3
 x4 | x4 | x4 | x4 | z2 z D | x4 | x4 | x4 | x4 | x4 | x4 | x4 | x4 | x4 | x4 | x4 |[M:3/8] x3 |] %17

